docs/local/img/index-like/icon3.svg

<svg width="45" height="45" viewBox="0 0 45 45" fill="none" xmlns="http://www.w3.org/2000/svg">
<g clip-path="url(#clip0_2351_1759)">
<path d="M23.8623 45H12.9463C12.5859 45 12.2871 44.7012 12.2871 44.3408C12.2871 43.9805 12.5859 43.6816 12.9463 43.6816H23.8623C24.2227 43.6816 24.5215 43.9805 24.5215 44.3408C24.5215 44.7012 24.2314 45 23.8623 45Z" fill="#D2286F"/>
<path d="M30.7354 25.8926H29.4609C29.1006 25.8926 28.8018 25.5938 28.8018 25.2334C28.8018 24.873 29.1006 24.5742 29.4609 24.5742H30.7354C31.0957 24.5742 31.3945 24.2754 31.3945 23.915V18.3604C31.3945 18 31.0957 17.7012 30.7354 17.7012H14.2646C13.9043 17.7012 13.6055 18 13.6055 18.3604V23.915C13.6055 24.2754 13.9043 24.5742 14.2646 24.5742H26.3848C26.7451 24.5742 27.0439 24.873 27.0439 25.2334C27.0439 25.5938 26.7451 25.8926 26.3848 25.8926H14.2646C13.1748 25.8926 12.2871 25.0049 12.2871 23.915V18.3604C12.2871 17.2705 13.1748 16.3828 14.2646 16.3828H30.7354C31.8252 16.3828 32.7129 17.2705 32.7129 18.3604V23.915C32.7129 25.0049 31.8252 25.8926 30.7354 25.8926Z" fill="#D2286F"/>
<path d="M27.958 36.8086C27.5977 36.8086 27.2988 36.5098 27.2988 36.1494V32.915C27.2988 31.8252 28.0371 30.8672 29.0918 30.5772L33.4336 29.417C35.4463 28.8809 36.8525 27.0439 36.8525 24.9609V21.9639C36.8525 21.1201 36.1582 20.4258 35.3145 20.4258H32.0537C31.6934 20.4258 31.3945 20.127 31.3945 19.7666C31.3945 19.4063 31.6934 19.1074 32.0537 19.1074H35.3145C36.8877 19.1074 38.1709 20.3906 38.1709 21.9639V24.9609C38.1709 27.6416 36.3604 29.9971 33.7764 30.6914L29.4346 31.8516C28.9512 31.9834 28.6172 32.4141 28.6172 32.915V36.1494C28.6172 36.5186 28.3271 36.8086 27.958 36.8086Z" fill="#D2286F"/>
<path d="M25.2334 36.8086C24.873 36.8086 24.5742 36.5098 24.5742 36.1494V32.8447C24.5742 30.5596 26.1123 28.5557 28.3184 27.9668L32.335 26.8945C33.3896 26.6133 34.1279 25.6553 34.1279 24.5566V23.1592H32.0537C31.6934 23.1592 31.3945 22.8604 31.3945 22.5C31.3945 22.1396 31.6934 21.8408 32.0537 21.8408H34.7871C35.1475 21.8408 35.4463 22.1396 35.4463 22.5V24.5566C35.4463 26.2441 34.3037 27.7295 32.6777 28.1689L28.6611 29.2412C27.0352 29.6807 25.8926 31.166 25.8926 32.8535V36.1582C25.8926 36.5186 25.5938 36.8086 25.2334 36.8086Z" fill="#D2286F"/>
<path d="M29.3291 45H23.8711C23.5107 45 23.2119 44.7012 23.2119 44.3408V42.2402C23.2119 41.8799 23.5107 41.5811 23.8711 41.5811C24.2314 41.5811 24.5303 41.8799 24.5303 42.2402V43.6816H28.6699V37.4678C28.6699 37.1074 28.3711 36.8086 28.0107 36.8086H25.1895C24.8291 36.8086 24.5303 37.1074 24.5303 37.4678V39.1641C24.5303 39.5244 24.2314 39.8232 23.8711 39.8232C23.5107 39.8232 23.2119 39.5244 23.2119 39.1641V37.4678C23.2119 36.3779 24.0996 35.4902 25.1895 35.4902H28.0107C29.1006 35.4902 29.9883 36.3779 29.9883 37.4678V44.3408C29.9883 44.7012 29.6895 45 29.3291 45Z" fill="#D2286F"/>
<path d="M25.9102 22.4121C24.8467 22.4121 24.2754 21.999 23.8184 21.6738C23.4229 21.3926 23.1416 21.1816 22.5 21.1816C21.8584 21.1816 21.5771 21.3838 21.1816 21.6738C20.7246 22.0078 20.1533 22.4121 19.0898 22.4121C18.0264 22.4121 17.4551 21.999 16.998 21.6738C16.6025 21.3926 16.3213 21.1816 15.6797 21.1816C15.3193 21.1816 15.0205 20.8828 15.0205 20.5225C15.0205 20.1621 15.3193 19.8633 15.6797 19.8633C16.7432 19.8633 17.3145 20.2764 17.7715 20.6016C18.167 20.8828 18.4482 21.0938 19.0898 21.0938C19.7314 21.0938 20.0127 20.8916 20.4082 20.6016C20.8652 20.2676 21.4365 19.8633 22.5 19.8633C23.5635 19.8633 24.1348 20.2764 24.5918 20.6016C24.9873 20.8828 25.2686 21.0938 25.9102 21.0938C26.5518 21.0938 26.833 20.8916 27.2285 20.6016C27.6855 20.2764 28.2568 19.8633 29.3203 19.8633C29.6807 19.8633 29.9795 20.1621 29.9795 20.5225C29.9795 20.8828 29.6807 21.1816 29.3203 21.1816C28.6787 21.1816 28.3975 21.3838 28.002 21.6738C27.5449 21.999 26.9824 22.4121 25.9102 22.4121Z" fill="#D2286F"/>
<path d="M42.1436 45H29.3291C28.9687 45 28.6699 44.7012 28.6699 44.3408C28.6699 43.9805 28.9687 43.6816 29.3291 43.6816H42.1436C42.9873 43.6816 43.6816 42.9873 43.6816 42.1436V2.85645C43.6816 2.0127 42.9873 1.31836 42.1436 1.31836H32.0537C31.6934 1.31836 31.3945 1.01953 31.3945 0.65918C31.3945 0.298828 31.6934 0 32.0537 0H42.1436C43.7168 0 45 1.2832 45 2.85645V42.1436C45 43.7168 43.7168 45 42.1436 45Z" fill="#D2286F"/>
<path d="M17.042 40.9043C15.9258 40.9043 15.0205 39.999 15.0205 38.8828V37.5205C15.0205 36.4043 15.9258 35.499 17.042 35.499C18.1582 35.499 19.0635 36.4043 19.0635 37.5205V38.8828C19.0635 39.999 18.1582 40.9043 17.042 40.9043ZM17.042 36.8086C16.6553 36.8086 16.3389 37.125 16.3389 37.5117V38.874C16.3389 39.2607 16.6553 39.5771 17.042 39.5771C17.4287 39.5771 17.7451 39.2607 17.7451 38.874V37.5117C17.7451 37.125 17.4287 36.8086 17.042 36.8086Z" fill="#D2286F"/>
<path d="M37.5381 9.52734C37.3623 9.52734 37.1953 9.45703 37.0723 9.33398C37.0371 9.29883 37.0107 9.27246 36.9932 9.2373C36.9668 9.20215 36.9492 9.1582 36.9316 9.12305C36.9141 9.0791 36.9053 9.04394 36.8965 9C36.8877 8.95605 36.8877 8.91211 36.8877 8.86816C36.8877 8.82422 36.8877 8.78027 36.8965 8.73633C36.9053 8.69238 36.9141 8.64844 36.9316 8.61328C36.9492 8.56933 36.9668 8.53418 36.9932 8.49902C37.0195 8.46387 37.0459 8.42871 37.0723 8.40234C37.2217 8.25293 37.4502 8.18262 37.6699 8.22656C37.7139 8.23535 37.7578 8.24414 37.793 8.26172C37.8369 8.2793 37.8721 8.29687 37.9072 8.32324C37.9424 8.34961 37.9775 8.37598 38.0039 8.40234C38.0391 8.42871 38.0654 8.46387 38.083 8.49902C38.1094 8.53418 38.127 8.56933 38.1445 8.61328C38.1621 8.65723 38.1709 8.69238 38.1797 8.73633C38.1885 8.78027 38.1973 8.82422 38.1973 8.86816C38.1973 8.91211 38.1973 8.95605 38.1797 9C38.1709 9.04394 38.1621 9.08789 38.1445 9.12305C38.127 9.1582 38.1094 9.20215 38.083 9.2373C38.0566 9.27246 38.0303 9.30762 38.0039 9.33398C37.9775 9.36035 37.9424 9.39551 37.9072 9.41308C37.8721 9.43066 37.8369 9.45703 37.793 9.47461C37.749 9.49219 37.7139 9.50098 37.6699 9.50976C37.626 9.51855 37.582 9.52734 37.5381 9.52734Z" fill="#D2286F"/>
<path d="M40.2451 13.6055C40.2012 13.6055 40.1572 13.6055 40.1133 13.5967C40.0693 13.5879 40.0342 13.5791 39.9902 13.5615C39.9463 13.5439 39.9111 13.5264 39.876 13.5C39.8408 13.4736 39.8057 13.4473 39.7793 13.4209C39.6563 13.2979 39.5859 13.1309 39.5859 12.9551C39.5859 12.9111 39.5859 12.8672 39.5947 12.8232C39.6035 12.7793 39.6123 12.7354 39.6299 12.7002C39.6475 12.665 39.665 12.6211 39.6914 12.5859C39.7178 12.5508 39.7441 12.5156 39.7705 12.4893C39.8057 12.4541 39.832 12.4277 39.8672 12.4102C39.9023 12.3838 39.9375 12.3662 39.9814 12.3486C40.0254 12.3311 40.0605 12.3223 40.1045 12.3135C40.1924 12.2959 40.2803 12.2959 40.3594 12.3135C40.4033 12.3223 40.4385 12.3311 40.4824 12.3486C40.5264 12.3662 40.5615 12.3838 40.5967 12.4102C40.6318 12.4365 40.667 12.4629 40.6934 12.4893C40.7197 12.5156 40.7549 12.5508 40.7725 12.5859C40.7988 12.6211 40.8164 12.6562 40.834 12.7002C40.8516 12.7441 40.8604 12.7793 40.8691 12.8232C40.8779 12.8672 40.8779 12.9111 40.8779 12.9551C40.8779 13.1309 40.8076 13.2979 40.6846 13.4209C40.6494 13.4561 40.623 13.4824 40.5879 13.5C40.5527 13.5264 40.5176 13.5439 40.4736 13.5615C40.4297 13.5791 40.3945 13.5879 40.3506 13.5967C40.333 13.5967 40.2891 13.6055 40.2451 13.6055Z" fill="#D2286F"/>
<path d="M36.1494 17.7012C36.1055 17.7012 36.0615 17.6924 36.0176 17.6924C35.9736 17.6836 35.9297 17.6748 35.8945 17.6572C35.8594 17.6396 35.8154 17.6221 35.7803 17.5957C35.7451 17.5693 35.71 17.543 35.6836 17.5166C35.6572 17.4814 35.6221 17.4551 35.6045 17.4199C35.5781 17.3848 35.5605 17.3496 35.543 17.3057C35.5254 17.2705 35.5166 17.2266 35.5078 17.1826C35.499 17.1387 35.4902 17.0947 35.4902 17.0508C35.4902 16.875 35.5605 16.708 35.6836 16.585C35.71 16.5586 35.7451 16.5234 35.7803 16.5059C35.8154 16.4795 35.8506 16.4619 35.8945 16.4443C35.9385 16.4268 35.9736 16.418 36.0176 16.4092C36.1055 16.3916 36.1934 16.3916 36.2725 16.4092C36.3164 16.418 36.3516 16.4268 36.3955 16.4443C36.4395 16.4619 36.4746 16.4795 36.5098 16.5059C36.5449 16.5322 36.5801 16.5586 36.6064 16.585C36.7295 16.708 36.7998 16.875 36.7998 17.0508C36.7998 17.0947 36.7998 17.1387 36.791 17.1826C36.7822 17.2266 36.7734 17.2705 36.7559 17.3057C36.7383 17.3496 36.7207 17.3848 36.6943 17.4199C36.668 17.4551 36.6416 17.4902 36.6152 17.5166C36.4922 17.6309 36.3252 17.7012 36.1494 17.7012Z" fill="#D2286F"/>
<path d="M36.1494 36.7295C36.1055 36.7295 36.0615 36.7295 36.0176 36.7207C35.9736 36.7119 35.9297 36.7031 35.8945 36.6855C35.8594 36.668 35.8154 36.6504 35.7803 36.624C35.7451 36.5977 35.71 36.5713 35.6836 36.5449C35.5605 36.4219 35.4902 36.2549 35.4902 36.0791C35.4902 36.0352 35.4902 35.9912 35.5078 35.9473C35.5166 35.9033 35.5254 35.8594 35.543 35.8242C35.5605 35.7803 35.5781 35.7451 35.6045 35.71C35.6309 35.6748 35.6572 35.6396 35.6836 35.6133C35.71 35.5869 35.7451 35.5518 35.7803 35.5342C35.8154 35.5078 35.8506 35.4902 35.8945 35.4727C35.9385 35.4551 35.9736 35.4463 36.0176 35.4375C36.2285 35.3936 36.457 35.4639 36.6152 35.6133C36.6504 35.6396 36.6768 35.6748 36.6943 35.71C36.7207 35.7451 36.7383 35.7803 36.7559 35.8242C36.7734 35.8682 36.7822 35.9033 36.791 35.9473C36.7998 35.9912 36.7998 36.0352 36.7998 36.0791C36.7998 36.2549 36.7295 36.4219 36.6064 36.5449C36.5801 36.5801 36.5449 36.6064 36.5098 36.624C36.4746 36.6504 36.4395 36.668 36.3955 36.6855C36.3516 36.7031 36.3164 36.7119 36.2725 36.7207C36.2373 36.7207 36.1934 36.7295 36.1494 36.7295Z" fill="#D2286F"/>
<path d="M40.2012 32.6777C40.1572 32.6777 40.1133 32.6777 40.0693 32.6602C40.0254 32.6514 39.9902 32.6426 39.9463 32.625C39.9023 32.6074 39.8672 32.5898 39.832 32.5635C39.7969 32.5371 39.7617 32.5107 39.7354 32.4844C39.709 32.458 39.6738 32.4229 39.6563 32.3877C39.6299 32.3525 39.6123 32.3174 39.5947 32.2734C39.5771 32.2295 39.5684 32.1943 39.5596 32.1504C39.5508 32.1064 39.542 32.0625 39.542 32.0186C39.542 31.9746 39.5508 31.9307 39.5596 31.8867C39.5684 31.8428 39.5771 31.7988 39.5947 31.7637C39.6123 31.7197 39.6299 31.6846 39.6563 31.6494C39.6826 31.6143 39.709 31.5791 39.7354 31.5527C39.7705 31.5264 39.7969 31.4912 39.832 31.4736C39.8672 31.4473 39.9023 31.4297 39.9463 31.4121C39.9902 31.3945 40.0254 31.3857 40.0693 31.377C40.1572 31.3594 40.2451 31.3594 40.3242 31.377C40.3682 31.3857 40.4033 31.3945 40.4473 31.4121C40.4912 31.4297 40.5264 31.4473 40.5615 31.4736C40.5967 31.5 40.6318 31.5264 40.6582 31.5527C40.6846 31.5791 40.7197 31.6143 40.7373 31.6494C40.7637 31.6846 40.7813 31.7197 40.7988 31.7637C40.8164 31.8076 40.8252 31.8428 40.834 31.8867C40.8428 31.9307 40.8428 31.9746 40.8428 32.0186C40.8428 32.0625 40.8428 32.1064 40.834 32.1504C40.8252 32.1943 40.8164 32.2383 40.7988 32.2734C40.7813 32.3174 40.7637 32.3525 40.7373 32.3877C40.7109 32.4229 40.6846 32.458 40.6582 32.4844C40.623 32.5195 40.5967 32.5459 40.5615 32.5635C40.5264 32.5898 40.4912 32.6074 40.4473 32.625C40.4033 32.6426 40.3682 32.6514 40.3242 32.6602C40.2891 32.6689 40.2451 32.6777 40.2012 32.6777Z" fill="#D2286F"/>
<path d="M32.0537 35.5518C32.0098 35.5518 31.9658 35.5518 31.9219 35.543C31.8779 35.5342 31.834 35.5254 31.7988 35.5078C31.7549 35.4902 31.7197 35.4727 31.6846 35.4463C31.6494 35.4199 31.6143 35.3936 31.5879 35.3672C31.5615 35.3408 31.5264 35.3057 31.5088 35.2705C31.4824 35.2354 31.4648 35.2002 31.4473 35.1562C31.4297 35.1123 31.4209 35.0771 31.4121 35.0332C31.4033 34.9893 31.4033 34.9453 31.4033 34.9014C31.4033 34.8574 31.4033 34.8135 31.4121 34.7695C31.4209 34.7256 31.4297 34.6816 31.4473 34.6465C31.4648 34.6113 31.4824 34.5674 31.5088 34.5322C31.5352 34.4971 31.5615 34.4619 31.5879 34.4355C31.6143 34.4092 31.6494 34.374 31.6846 34.3564C31.7197 34.3301 31.7549 34.3125 31.7988 34.2949C31.8428 34.2773 31.8779 34.2686 31.9219 34.2598C32.1328 34.2158 32.3613 34.2861 32.5195 34.4355C32.5547 34.4619 32.5811 34.4971 32.5986 34.5322C32.625 34.5674 32.6426 34.6025 32.6602 34.6465C32.6777 34.6904 32.6865 34.7256 32.6953 34.7695C32.7041 34.8135 32.7129 34.8574 32.7129 34.9014C32.7129 35.0771 32.6426 35.2441 32.5195 35.3672C32.3965 35.4814 32.2295 35.5518 32.0537 35.5518Z" fill="#D2286F"/>
<path d="M12.9463 45H2.85645C1.2832 45 0 43.7168 0 42.1436V10.5645C0 10.2041 0.298828 9.90527 0.65918 9.90527C1.01953 9.90527 1.31836 10.2041 1.31836 10.5645V42.1436C1.31836 42.9873 2.0127 43.6816 2.85645 43.6816H12.2871V23.915C12.2871 23.5547 12.5859 23.2559 12.9463 23.2559C13.3066 23.2559 13.6055 23.5547 13.6055 23.915V44.3408C13.6055 44.7012 13.3066 45 12.9463 45Z" fill="#D2286F"/>
<path d="M32.0537 19.0195C31.6934 19.0195 31.3945 18.7207 31.3945 18.3604V1.31836H2.85644C2.01269 1.31836 1.31836 2.0127 1.31836 2.85645V7.48828C1.31836 7.84863 1.01953 8.14746 0.65918 8.14746C0.298828 8.14746 0 7.84863 0 7.48828V2.85645C0 1.2832 1.2832 0 2.85644 0H32.0537C32.4141 0 32.7129 0.298828 32.7129 0.65918V18.3604C32.7129 18.7207 32.4228 19.0195 32.0537 19.0195Z" fill="#D2286F"/>
<path d="M17.042 34.084C15.9258 34.084 15.0205 33.1787 15.0205 32.0625V25.2334C15.0205 24.873 15.3193 24.5742 15.6797 24.5742C16.04 24.5742 16.3389 24.873 16.3389 25.2334V32.0625C16.3389 32.4492 16.6553 32.7656 17.042 32.7656C17.4287 32.7656 17.7451 32.4492 17.7451 32.0625V29.3291C17.7451 28.2129 18.6504 27.3076 19.7666 27.3076C20.8828 27.3076 21.7881 28.2129 21.7881 29.3291C21.7881 29.7158 22.1045 30.0322 22.4912 30.0322C22.8779 30.0322 23.1943 29.7158 23.1943 29.3291V25.2334C23.1943 24.873 23.4932 24.5742 23.8535 24.5742C24.2139 24.5742 24.5127 24.873 24.5127 25.2334V29.3291C24.5127 30.4453 23.6074 31.3506 22.4912 31.3506C21.375 31.3506 20.4697 30.4453 20.4697 29.3291C20.4697 28.9424 20.1533 28.626 19.7666 28.626C19.3799 28.626 19.0635 28.9424 19.0635 29.3291V32.0625C19.0635 33.1699 18.1582 34.084 17.042 34.084Z" fill="#D2286F"/>
</g>
<defs>
<clipPath id="clip0_2351_1759">
<rect width="45" height="45" fill="white"/>
</clipPath>
</defs>
</svg>

<svg width="45" height="45" viewBox="0 0 45 45" fill="none" xmlns="http://www.w3.org/2000/svg"><g clip-path="url(#clip0_2351_1759)" fill="#D2286F"><path d="M23.862 45H12.946a.664.664 0 01-.659-.66c0-.36.299-.658.66-.658h10.915a.658.658 0 110 1.318zm6.873-19.107h-1.274a.664.664 0 01-.66-.66c0-.36.3-.659.66-.659h1.274c.36 0 .66-.299.66-.659V18.36c0-.36-.3-.659-.66-.659h-16.47c-.36 0-.66.299-.66.66v5.554c0 .36.3.66.66.66h12.12c.36 0 .659.298.659.658 0 .36-.299.66-.66.66h-12.12a1.98 1.98 0 01-1.977-1.978V18.36a1.98 1.98 0 011.978-1.977h16.47a1.98 1.98 0 011.978 1.977v5.555a1.98 1.98 0 01-1.978 1.978z"/><path d="M27.958 36.809a.664.664 0 01-.66-.66v-3.234c0-1.09.74-2.048 1.794-2.338l4.342-1.16a4.618 4.618 0 003.419-4.456v-2.997c0-.844-.695-1.538-1.538-1.538h-3.261a.664.664 0 01-.66-.66c0-.36.3-.659.66-.659h3.26a2.862 2.862 0 012.857 2.857v2.997c0 2.68-1.81 5.036-4.395 5.73l-4.341 1.16a1.1 1.1 0 00-.818 1.064v3.234c0 .37-.29.66-.659.66z"/><path d="M25.233 36.809a.664.664 0 01-.659-.66v-3.304a5.051 5.051 0 013.744-4.878l4.017-1.072a2.419 2.419 0 001.793-2.338v-1.398h-2.074a.664.664 0 01-.66-.659c0-.36.3-.66.66-.66h2.733c.36 0 .66.3.66.66v2.057a3.753 3.753 0 01-2.77 3.612l-4.016 1.072a3.753 3.753 0 00-2.768 3.612v3.305c0 .36-.3.65-.66.65z"/><path d="M29.33 45h-5.46a.664.664 0 01-.66-.66v-2.1c0-.36.3-.659.66-.659.36 0 .66.299.66.66v1.44h4.139v-6.213c0-.36-.299-.66-.66-.66h-2.82c-.36 0-.66.3-.66.66v1.696c0 .36-.299.66-.659.66a.664.664 0 01-.66-.66v-1.696a1.98 1.98 0 011.979-1.978h2.82a1.98 1.98 0 011.978 1.978v6.873c0 .36-.299.659-.659.659zm-3.42-22.588c-1.063 0-1.635-.413-2.092-.738-.395-.281-.676-.492-1.318-.492s-.923.202-1.318.492c-.457.334-1.029.738-2.092.738-1.064 0-1.635-.413-2.092-.738-.396-.281-.677-.492-1.318-.492a.664.664 0 01-.66-.66c0-.36.3-.659.66-.659 1.063 0 1.634.413 2.091.739.396.28.677.492 1.319.492.641 0 .923-.202 1.318-.492.457-.334 1.028-.739 2.092-.739s1.635.413 2.092.739c.395.28.677.492 1.318.492.642 0 .923-.202 1.319-.492.457-.326 1.028-.739 2.091-.739.36 0 .66.3.66.66 0 .36-.3.659-.66.659-.641 0-.922.202-1.318.492-.457.325-1.02.738-2.092.738z"/><path d="M42.144 45H29.329a.664.664 0 01-.66-.66c0-.36.3-.658.66-.658h12.815c.843 0 1.538-.695 1.538-1.538V2.856c0-.843-.695-1.538-1.538-1.538h-10.09a.664.664 0 01-.66-.659c0-.36.3-.659.66-.659h10.09A2.862 2.862 0 0145 2.856v39.288A2.862 2.862 0 0142.144 45zm-25.102-4.096a2.022 2.022 0 01-2.022-2.021V37.52a2.022 2.022 0 014.044 0v1.363a2.022 2.022 0 01-2.022 2.021zm0-4.095a.705.705 0 00-.703.703v1.362c0 .387.316.703.703.703a.705.705 0 00.703-.703v-1.362a.705.705 0 00-.703-.703z"/><path d="M37.538 9.527a.658.658 0 01-.545-.29c-.026-.035-.044-.079-.061-.114A.654.654 0 0136.897 9c-.01-.044-.01-.088-.01-.132 0-.044 0-.088.01-.132a.508.508 0 01.035-.123.473.473 0 01.061-.114.922.922 0 01.08-.097.662.662 0 01.597-.175.504.504 0 01.123.035c.044.017.08.035.114.061.035.027.07.053.097.08a.275.275 0 01.079.096.647.647 0 01.097.237.678.678 0 01.017.132c0 .044 0 .088-.017.132-.01.044-.018.088-.035.123-.018.035-.036.08-.062.114a.9.9 0 01-.08.097c-.026.026-.06.062-.096.08-.035.017-.07.043-.114.06a.647.647 0 01-.123.036.678.678 0 01-.132.017zm2.707 4.078c-.044 0-.088 0-.132-.008a.647.647 0 01-.237-.097.659.659 0 01-.29-.545c0-.044 0-.088.009-.132a.504.504 0 01.035-.123c.017-.035.035-.079.061-.114.027-.035.053-.07.08-.097a.393.393 0 01.096-.079.473.473 0 01.114-.061.654.654 0 01.123-.036.621.621 0 01.255 0 .653.653 0 01.238.097.93.93 0 01.096.08.425.425 0 01.08.096.639.639 0 01.097.237.731.731 0 01.008.132.659.659 0 01-.404.607.646.646 0 01-.123.035c-.018 0-.062.008-.106.008zm-4.095 4.096c-.044 0-.088-.009-.132-.009a.504.504 0 01-.123-.035c-.036-.017-.08-.035-.115-.061-.035-.027-.07-.053-.096-.08-.027-.035-.062-.06-.08-.096a.47.47 0 01-.061-.114.504.504 0 01-.035-.123.677.677 0 01-.018-.132c0-.176.07-.343.194-.466.026-.026.061-.062.096-.08a.473.473 0 01.114-.06.654.654 0 01.124-.036.621.621 0 01.255 0 .653.653 0 01.237.097.658.658 0 01.29.545c0 .044 0 .088-.009.132a.508.508 0 01-.035.123.473.473 0 01-.062.114.92.92 0 01-.079.097.69.69 0 01-.466.184zm0 19.029c-.044 0-.088 0-.132-.01a.504.504 0 01-.123-.035c-.036-.017-.08-.035-.115-.061a.658.658 0 01-.29-.545c0-.044 0-.088.018-.132a.504.504 0 01.035-.123.47.47 0 01.062-.114c.026-.035.052-.07.079-.097a.422.422 0 01.096-.079.647.647 0 01.237-.097.687.687 0 01.598.176.273.273 0 01.08.097.654.654 0 01.105.37c0 .175-.07.342-.194.465a.274.274 0 01-.096.079.646.646 0 01-.237.097c-.036 0-.08.008-.124.008zm4.051-4.052c-.044 0-.088 0-.132-.018a.646.646 0 01-.237-.096c-.035-.027-.07-.053-.097-.08a.435.435 0 01-.079-.096.646.646 0 01-.097-.237c-.008-.045-.017-.089-.017-.132 0-.044.009-.088.018-.132a.453.453 0 01.035-.123.473.473 0 01.061-.115.93.93 0 01.08-.096c.035-.027.06-.062.096-.08a.639.639 0 01.237-.097.621.621 0 01.255.001.64.64 0 01.238.097c.035.026.07.052.096.079a.425.425 0 01.08.096.646.646 0 01.097.237.748.748 0 01.008.133c0 .044 0 .087-.009.131a.538.538 0 01-.035.123.47.47 0 01-.062.115c-.026.035-.052.07-.079.096-.035.035-.061.062-.096.08a.647.647 0 01-.237.097.523.523 0 01-.124.017zm-8.147 2.874c-.044 0-.088 0-.132-.009a.504.504 0 01-.123-.035.472.472 0 01-.114-.062.808.808 0 01-.097-.079.422.422 0 01-.08-.096.646.646 0 01-.097-.237c-.008-.045-.008-.089-.008-.133 0-.044 0-.088.01-.132a.496.496 0 01.034-.122c.018-.036.035-.08.062-.115.026-.035.052-.07.079-.096a.398.398 0 01.097-.08.647.647 0 01.237-.097c.21-.043.44.027.598.176a.274.274 0 01.079.097.653.653 0 01.097.237c.008.044.017.088.017.132 0 .176-.07.343-.194.466a.69.69 0 01-.465.185zM12.946 45H2.856A2.862 2.862 0 010 42.144v-31.58c0-.36.299-.659.66-.659.36 0 .658.3.658.66v31.579c0 .843.695 1.538 1.538 1.538h9.431V23.915c0-.36.299-.66.66-.66.36 0 .659.3.659.66v20.426c0 .36-.3.659-.66.659zm19.108-25.98a.664.664 0 01-.66-.66V1.318H2.857c-.843 0-1.538.695-1.538 1.538v4.632c0 .36-.298.66-.659.66A.664.664 0 010 7.487V2.856A2.862 2.862 0 012.856 0h29.198c.36 0 .659.299.659.66v17.7c0 .36-.29.66-.66.66zM17.042 34.084a2.022 2.022 0 01-2.022-2.022v-6.829c0-.36.3-.659.66-.659.36 0 .659.299.659.66v6.828c0 .387.316.704.703.704a.705.705 0 00.703-.703v-2.734a2.022 2.022 0 014.043 0c0 .387.317.703.703.703a.705.705 0 00.703-.703v-4.096c0-.36.3-.659.66-.659.36 0 .659.299.659.66v4.095a2.022 2.022 0 01-4.043 0 .705.705 0 00-.703-.703.705.705 0 00-.703.703v2.733a2.027 2.027 0 01-2.022 2.022z"/></g><defs><clipPath id="clip0_2351_1759"><path fill="#fff" d="M0 0h45v45H0z"/></clipPath></defs></svg>
